X: 6070
T: Capricorn, The
R: jig
M: 6/8
K: Dmajor
|:ABd efg|fed def|gfe efg|fed e2 A|
ABd efg|fed def|gfe fed|BAG A3:|
afd def|gee efg|fed def|fed e2 e|
afd def|gee efg|fed edc|dec d2 f|
afd def|gee efg|fed fed|fed e2 e|
afd Adf|gdB deg|fed edc|dec d3||
"al fine"
afd Adf|gdB GBd|fed edc|dAF D3||

